X: 13833
T: Four Shoves
R: polka
M: 2/4
K: Gmajor
|:G>A BA|GE EG/E/|DF A/c/A/F/|GB dB|
G2 B/B/A|GE EG/E/|DF A/c/A/F/|1 G3 E/F/:|2 G3 A|
|:Bd g2|fe e2|cB ce|ed de/d/|
Bd gB|fe e2|cB ce|1 d3 A:|2 d/e/d/c/ B/c/B/A/|

